X:1
T:Title
L:1/8
M:4/4
I:linebreak $
K:D
V:1 treble nm="Voice" snm="Voice"
V:1
 f2 f2 d2 ef | g2 g2 B4 | efed cB A2 | ABAG FE D2 | f2 f2 d2 ef |$ g2 g2 B4 | efed cB A2 | %7
 AB c2 d4 :: A2 AG F2 A2 | A2 d2 F4 |$ G2 F2 E4 | G2 F2 E4 | efed cB A2 | dcdA F2 A2 | %14
 d2 d2 ef g2 | f2 e2 d4 :| %16
